public/images/star-active.svg

<svg width="20" height="20" viewBox="0 0 20 20" fill="none" xmlns="http://www.w3.org/2000/svg">
<g id="Group 88">
<path id="Star 4" d="M9.1219 2.85979C9.50089 2.16485 10.4988 2.16484 10.8778 2.85979L13.1151 6.96221L17.7081 7.82232C18.4861 7.96802 18.7945 8.91704 18.2507 9.49224L15.0404 12.8878L15.6417 17.5218C15.7436 18.3068 14.9363 18.8933 14.2212 18.5539L9.99982 16.55L5.77844 18.5539C5.06335 18.8933 4.25606 18.3068 4.35792 17.5218L4.95922 12.8878L1.74896 9.49224C1.20515 8.91704 1.5135 7.96802 2.29155 7.82232L6.88456 6.96221L9.1219 2.85979Z" fill="#FFB524"/>
</g>
</svg>

<svg xmlns="http://www.w3.org/2000/svg" width="20" height="20" fill="none"><path fill="#FFB524" d="M9.122 2.86a1 1 0 0 1 1.756 0l2.237 4.102 4.593.86a1 1 0 0 1 .543 1.67l-3.21 3.396.6 4.634a1 1 0 0 1-1.42 1.032L10 16.55l-4.222 2.004a1 1 0 0 1-1.42-1.032l.601-4.634-3.21-3.396a1 1 0 0 1 .543-1.67l4.593-.86L9.122 2.86Z"/></svg>
